X: 38
T:Stiam Boat,The. GS.038
T:Steam Boat,The. GS.038
M:4/4
L:1/8
Q:160
S:George Spencer m/s, Leeds,1831
R:Hornpipe
O:England
A:Leeds
N:See number 58 - which is identical.
H:1831
Z:vmp.Cherri Graebe
K:G major
d2 | g2 bg d2 gd | B2 dB G2G2 | F2 AF D2 d2 | c2 B2 B2 d2 | g2 bg d2 gd
|! B2 dB G2 BG | FGAB cAGF | G2G2G2 :||:
 Bc | d2 de dBGB | c2 cd cAFA |! GABc defg | edcB A2 Bc | d2 de dBGB | c
2 cd cAFA | Ggec BdFA | G2G2G2 :||
